icons/multi-select-24.svg

<svg xmlns="http://www.w3.org/2000/svg" width="24" height="24" viewBox="0 0 24 24">
  <defs/>
  <path d="M8.75,11.5 L20.25,11.5 C20.664,11.5 21,11.836 21,12.25 C21,12.664 20.664,13 20.25,13 L8.75,13 C8.336,13 8,12.664 8,12.25 C8,11.836 8.336,11.5 8.75,11.5 Z M8.75,17.5 L20.25,17.5 C20.664,17.5 21,17.836 21,18.25 C21,18.664 20.664,19 20.25,19 L8.75,19 C8.336,19 8,18.664 8,18.25 C8,17.836 8.336,17.5 8.75,17.5 Z M3.75,5.5 L13.75,5.5 C14.164,5.5 14.5,5.836 14.5,6.25 C14.5,6.664 14.164,7 13.75,7 L3.75,7 C3.336,7 3,6.664 3,6.25 C3,5.836 3.336,5.5 3.75,5.5 Z M5,12 C5,12.552 4.552,13 4,13 C3.448,13 3,12.552 3,12 C3,11.448 3.448,11 4,11 C4.552,11 5,11.448 5,12 Z M4,19 C3.448,19 3,18.552 3,18 C3,17.448 3.448,17 4,17 C4.552,17 5,17.448 5,18 C5,18.552 4.552,19 4,19 Z"/>
  <path d="M19.309,7.918 L17.064,5.417 A0.25 0.25 0 0 1 17.25,5 L21.74,5 A0.25 0.25 0 0 1 21.925,5.417 L19.681,7.917 A0.25 0.25 0 0 1 19.309,7.917 Z"/>
</svg>

<svg xmlns="http://www.w3.org/2000/svg" width="24" height="24" viewBox="0 0 24 24"><path d="M8.75 11.5h11.5a.75.75 0 010 1.5H8.75a.75.75 0 010-1.5zm0 6h11.5a.75.75 0 010 1.5H8.75a.75.75 0 010-1.5zm-5-12h10a.75.75 0 010 1.5h-10a.75.75 0 010-1.5zM5 12a1 1 0 11-2 0 1 1 0 012 0zm-1 7a1 1 0 110-2 1 1 0 010 2zM19.309 7.918l-2.245-2.501A.25.25 0 0117.25 5h4.49a.25.25 0 01.185.417l-2.244 2.5a.25.25 0 01-.372 0z"/></svg>
